X: 1
T: McGuire's Jig
T: Lieutenant McGuire's Jig
%: Chi Mi Na M\`orbheanna
C:
R: march
Z: 2014 John Chambers <jc:trillian.mit.edu>
S: page from Concord Slow Scottish Session collection labelled "PIPER'S CORNER  SRS 11/94  7.11-A"
N: "T.M." below final bar line.
M: 6/8
L: 1/8
K: Bm
"A"[|] f |\
"Bm"BBB d2e | "Bm"fBB fBB | "A"AAA c2d | "A"eAA eAA |\
"Bm"BBB d2e | "Bm"fBB fBB | "Em"f2f "F#m"e2c | "Bm"dBB B2 :|
"B"|: c |\
"D"d2e fdd | "D"add fdd | "D"dde fdd | "A7"ecA ABc |\
"D"d2e fdd | "D"add fdd | "Em"e2e "F#m"f2e | "Bm"dBB B2 :|
"C"|: f |\
"Bm"BBB d2e | "Bm"f2e fga | "A"AAA c2d | "A"cee "F#m"ecA |\
"Bm"BBB d2e | "Bm"f2e fga | "Em"e2e "F#m"f2e | "Bm"dBB B2 :|
"D"|: f |\
"Bm"BBB BfB | "Bm"BaB fBB | "A"AAA AeA | "A"cac "F#m"eAA |\
"Bm"BBB "(A)"BfB | "G"BaB "F#m"fBB | "Em"f2f "F#m"e2c | "Bm"dBB B2 :|
